packages/icons/svg/24/ViewGrid3Columns.svg

<svg width="24" height="24" viewBox="0 0 24 24" fill="none" xmlns="http://www.w3.org/2000/svg">
<path d="M5 6C5 5.44772 5.44772 5 6 5H8C8.55228 5 9 5.44772 9 6V8C9 8.55228 8.55228 9 8 9H6C5.44772 9 5 8.55228 5 8V6Z" fill="#858585"/>
<path d="M10 6C10 5.44772 10.4477 5 11 5H13C13.5523 5 14 5.44772 14 6V8C14 8.55228 13.5523 9 13 9H11C10.4477 9 10 8.55228 10 8V6Z" fill="#858585"/>
<path d="M16 5C15.4477 5 15 5.44772 15 6V8C15 8.55228 15.4477 9 16 9H18C18.5523 9 19 8.55228 19 8V6C19 5.44772 18.5523 5 18 5H16Z" fill="#858585"/>
<path d="M5 11C5 10.4477 5.44772 10 6 10H8C8.55228 10 9 10.4477 9 11V13C9 13.5523 8.55228 14 8 14H6C5.44772 14 5 13.5523 5 13V11Z" fill="#858585"/>
<path d="M11 10C10.4477 10 10 10.4477 10 11V13C10 13.5523 10.4477 14 11 14H13C13.5523 14 14 13.5523 14 13V11C14 10.4477 13.5523 10 13 10H11Z" fill="#858585"/>
<path d="M15 11C15 10.4477 15.4477 10 16 10H18C18.5523 10 19 10.4477 19 11V13C19 13.5523 18.5523 14 18 14H16C15.4477 14 15 13.5523 15 13V11Z" fill="#858585"/>
<path d="M6 15C5.44772 15 5 15.4477 5 16V18C5 18.5523 5.44772 19 6 19H8C8.55228 19 9 18.5523 9 18V16C9 15.4477 8.55228 15 8 15H6Z" fill="#858585"/>
<path d="M10 16C10 15.4477 10.4477 15 11 15H13C13.5523 15 14 15.4477 14 16V18C14 18.5523 13.5523 19 13 19H11C10.4477 19 10 18.5523 10 18V16Z" fill="#858585"/>
<path d="M16 15C15.4477 15 15 15.4477 15 16V18C15 18.5523 15.4477 19 16 19H18C18.5523 19 19 18.5523 19 18V16C19 15.4477 18.5523 15 18 15H16Z" fill="#858585"/>
</svg>

<svg width="24" height="24" fill="none" xmlns="http://www.w3.org/2000/svg" viewBox="0 0 24 24"><path d="M5 6a1 1 0 011-1h2a1 1 0 011 1v2a1 1 0 01-1 1H6a1 1 0 01-1-1V6zM10 6a1 1 0 011-1h2a1 1 0 011 1v2a1 1 0 01-1 1h-2a1 1 0 01-1-1V6zM16 5a1 1 0 00-1 1v2a1 1 0 001 1h2a1 1 0 001-1V6a1 1 0 00-1-1h-2zM5 11a1 1 0 011-1h2a1 1 0 011 1v2a1 1 0 01-1 1H6a1 1 0 01-1-1v-2zM11 10a1 1 0 00-1 1v2a1 1 0 001 1h2a1 1 0 001-1v-2a1 1 0 00-1-1h-2zM15 11a1 1 0 011-1h2a1 1 0 011 1v2a1 1 0 01-1 1h-2a1 1 0 01-1-1v-2zM6 15a1 1 0 00-1 1v2a1 1 0 001 1h2a1 1 0 001-1v-2a1 1 0 00-1-1H6zM10 16a1 1 0 011-1h2a1 1 0 011 1v2a1 1 0 01-1 1h-2a1 1 0 01-1-1v-2zM16 15a1 1 0 00-1 1v2a1 1 0 001 1h2a1 1 0 001-1v-2a1 1 0 00-1-1h-2z" fill="currentColor"></path></svg>
